X: 14357
T: Gallowglass, The
R: jig
M: 6/8
K: Adorian
A/B/|:cBA eBd|cAA A2 A/B/|cBA efg|BGG G2 A/B/|
cBA eBd|cea e2d|cBA GAB|1 cAA A2 A/B/:|2 cAA A2e||
~a3 ef/e/d|cAA A2 A/B/|cBA efg|BGG G2e|
~a3 ef/e/d|cAA Aed|cBA GAB|cAA A2e|
~a3 ef/e/d|cAA A2 A/B/|cBA efg|BGG G2e|
aeg ^fdB|ecA BGE|ABc dBe|cAA A2 A/B/||

